assets/img/ca-breast/regulatory.svg

<svg height="295" viewBox="0 0 144 295" width="144" xmlns="http://www.w3.org/2000/svg"><g fill="none" fill-rule="evenodd"><ellipse cx="71.804124" cy="284.175258" fill="#000" opacity=".204484" rx="71.649485" ry="10.824742"/><path d="m43.7975451 278.516152c-8.212951.626081-19.0163806 3.077512-16.4552904 5.53315 0 .406209 15.3711144 1.21356 21.2929843 0 2.9361965-.601711-1.1442607-5.814705-4.8376939-5.53315z" fill="#00f"/><path d="m108.042455 278.516152c-7.839635.626081-18.1519995 3.077512-15.7073225 5.53315 0 .406209 14.6724275 1.21356 20.3251215 0 2.802733-.601711-1.092249-5.814705-4.617799-5.53315z" fill="#00f" transform="matrix(-1 0 0 1 205.587628 0)"/><path d="m58.8887028 31.4206469c8.1045201-2.7729854 21.0249626-.8935849 27.9463487-.8935849-.9081566-8.8910064-3.9632227-26.11056894-14.2409252-25.51184717-10.2777025.59872176-12.9458414 17.71464287-13.7054235 26.40543207z" fill="#00f"/><g fill="#000"><path d="m50.1543973 104.457101c19.9618802-1.693831 27.4621072-1.529897 47.498425 0 5.6197557 7.582169-3.0184476 160.364892 1.9513931 175.591597.4445776 1.362105-7.3065917 3.7681-7.7071623 2.22844-3.9136062-15.042604-2.5947784-140.952641-16.6048463-145.106995-22.9187702 3.05313-20.3070016 130.446945-25.7883268 145.106995-.5450593 1.457786-5.6974009-.331513-5.6974009-2.973835 0-29.110102-1.4521709-145.792068 6.3479182-174.846202z" stroke="#000" stroke-width="2"/><path d="m67.5384558 30.671183c1.8106453-.8740819 10.2682384-.9154999 11.2428486 0 .6497401.6103333-.527938 3.0244042-3.5330343 7.2422125.2770681 29.5080272.2770681 46.3334627 0 50.4763063 0 .7364806-2.270987 1.8866124-3.3757919 0-1.255839-18.7778499 0-45.1278178 0-50.4763063-3.0568289-3.9631826-6.1446676-6.3681306-4.3340224-7.2422125z"/><path d="m58.4154368 13.6605324c1.2946617.5123368 9.5336375.5123368 24.7169274 0 1.1401549-.8329232 1.5042588-1.7647236 1.0923117-2.7954012-.4119471-1.03067757-7.6423305-1.21269868-21.6911501-.5460633-4.0400543 1.7153062-5.4127507 2.8291277-4.118089 3.3414645z"/><path d="m62.3230392 11.6023003c-3.7330363-6.19230938-4.7275783-9.81922094-2.9836262-10.8807347 2.6159282-1.59227063 22.1926378 1.14266471 25.0982645 3.19142377 1.9370845 1.36583936 1.9370845 3.75156863 0 7.15718783z"/><path d="m63 13.4267372c1.4186106 4.3821752 2.8707258 6.5732628 4.3563455 6.5732628 1.4856198 0 3.001751-2.1910876 4.5483938-6.5732628h.6272918c1.1097373 4.3821752 2.4425297 6.5732628 3.998377 6.5732628 1.5558472 0 3.3039021-2.3333333 5.2441644-7z"/></g><path d="m81.1928242 47.4402905c.6189963-1.9061763 7.6702177-1.934546 8.1925311 0 .5223135 1.934546-.6581808 5.8835247-1.7366866 7.2005739s-2.1438487 2.2484197-4.1597224 0c-2.0158738-2.2484197-2.9151184-5.2943976-2.2961221-7.2005739z" stroke="#000" stroke-width="2"/><path d="m93.6004346 119.6187c-2.821053-9.083131 3.077128-17.354416 4.2766014-17.964791 1.1994735-.610374-2.9693416 7.406763-2.3342037 7.993411 1.4254275-2.41006 5.2579477-8.821119 5.9770027-7.993411.719056.827708-4.6847673 8.370559-3.1122715 9.371526 1.1377904-1.670564 6.3986085-9.772306 6.9658015-8.210518.567193 1.561787-5.356496 7.606075-4.803721 11.727592-.120129 1.648868 4.41076-2.617703 4.022237-1.001154-.388524 1.616549-.977273 2.56626-5.3788077 6.077345-2.6332573 1.276988-3.6359037.87077-5.6126387 0z" fill="#00f" transform="matrix(-.76604444 -.64278761 .64278761 -.76604444 103.711554 259.759779)"/><path d="m44.2313688 119.484652c-2.821053-9.08313 3.077128-17.354416 4.2766014-17.96479s-2.9693417 7.406763-2.3342038 7.993411c1.4254275-2.410061 5.2579474-8.821119 5.9770029-7.993411s-4.6847674 8.370558-3.1122717 9.371526c1.1377904-1.670564 6.3986086-9.772307 6.9658016-8.210519s-5.3564962 7.606076-4.8037207 11.727593c-.1201298 1.648868 4.4107596-2.617703 4.0222362-1.001154-.3885235 1.616549-.9772726 2.56626-5.3788073 6.077344-2.6332573 1.276989-3.6359037.87077-5.6126386 0z" fill="#00f" transform="matrix(.64278761 -.76604444 -.76604444 -.64278761 102.707366 220.256658)"/><path d="m40.5359824 29.7921361c-41.69986333 13.9106336-30.557922 80.0957249 31.7029214 80.0957249 62.2608432 0 73.4706242-57.1054072 35.3419432-79.5691483" stroke="#000" stroke-linecap="round" stroke-linejoin="round" stroke-width="2" transform="matrix(1 0 0 -1 0 139.679998)"/><path d="m42.0275187 106.15444c-17.0163971-5.181633-26.8630812-49.2494941 9.8866278-55.9936025 0 19.473498-2.1064266 28.8426549-2.1064266 55.9936025l1.7741156-.945379m45.0073253 0 1.7290536 2.361978c0-27.6655137-.9185205-42.9149382-2.6747022-57.4102015 34.3769678 7.5559103 24.1450298 48.2959038 10.0075968 55.0482235" stroke="#000" stroke-linecap="round" stroke-linejoin="round" stroke-width="2"/></g></svg>

<?xml version="1.0" encoding="UTF-8"?>
<svg width="144px" height="295px" viewBox="0 0 144 295" version="1.1" xmlns="http://www.w3.org/2000/svg" xmlns:xlink="http://www.w3.org/1999/xlink">
    <!-- Generator: Sketch 49.3 (51167) - http://www.bohemiancoding.com/sketch -->
    <title>regulatory</title>
    <desc>Created with Sketch.</desc>
    <defs></defs>
    <g id="Page-1" stroke="none" stroke-width="1" fill="none" fill-rule="evenodd">
        <g id="illustrations" transform="translate(-258.000000, -167.000000)">
            <g id="regulatory" transform="translate(258.000000, 167.000000)">
                <ellipse id="Oval-2" fill="#000000" opacity="0.204483696" cx="71.8041237" cy="284.175258" rx="71.6494845" ry="10.8247423"></ellipse>
                <path d="M43.7975451,278.516152 C35.5845941,279.142233 24.7811645,281.593664 27.3422547,284.049302 C27.3422547,284.455511 42.7133691,285.262862 48.635239,284.049302 C51.5714355,283.447591 47.4909783,278.234597 43.7975451,278.516152 Z" id="Path-6" fill="#0000FF"></path>
                <path d="M108.042455,278.516152 C100.20282,279.142233 89.8904555,281.593664 92.3351325,284.049302 C92.3351325,284.455511 107.00756,285.262862 112.660254,284.049302 C115.462987,283.447591 111.568005,278.234597 108.042455,278.516152 Z" id="Path-6-Copy" fill="#0000FF" transform="translate(102.793814, 281.597938) scale(-1, 1) translate(-102.793814, -281.597938) "></path>
                <path d="M58.8887028,31.4206469 C66.9932229,28.6476615 79.9136654,30.527062 86.8350515,30.527062 C85.9268949,21.6360556 82.8718288,4.41649306 72.5941263,5.01521483 C62.3164238,5.61393659 59.6482849,22.7298577 58.8887028,31.4206469 Z" id="Path-3" fill="#0000FF"></path>
                <path d="M50.1543973,104.457101 C70.1162775,102.76327 77.6165045,102.927204 97.6528223,104.457101 C103.272578,112.03927 94.6343747,264.821993 99.6042154,280.048698 C100.048793,281.410803 92.2976237,283.816798 91.8970531,282.277138 C87.9834469,267.234534 89.3022747,141.324497 75.2922068,137.170143 C52.3734366,140.223273 54.9852052,267.617088 49.50388,282.277138 C48.9588207,283.734924 43.8064791,281.945625 43.8064791,279.303303 C43.8064791,250.193201 42.3543082,133.511235 50.1543973,104.457101 Z" id="Path-5" stroke="#000000" stroke-width="2" fill="#000000"></path>
                <path d="M67.5384558,30.671183 C69.3491011,29.7971011 77.8066942,29.7556831 78.7813044,30.671183 C79.4310445,31.2815163 78.2533664,33.6955872 75.2482701,37.9133955 C75.5253382,67.4214227 75.5253382,84.2468582 75.2482701,88.3897018 C75.2482701,89.1261824 72.9772831,90.2763142 71.8724782,88.3897018 C70.6166392,69.6118519 71.8724782,43.261884 71.8724782,37.9133955 C68.8156493,33.9502129 65.7278106,31.5452649 67.5384558,30.671183 Z" id="Path-16" fill="#000000"></path>
                <path d="M58.4154368,13.6605324 C59.7100985,14.1728692 67.9490743,14.1728692 83.1323642,13.6605324 C84.2725191,12.8276092 84.636623,11.8958088 84.2246759,10.8651312 C83.8127288,9.83445363 76.5823454,9.65243252 62.5335258,10.3190679 C58.4934715,12.0343741 57.1207751,13.1481956 58.4154368,13.6605324 Z" id="Path-17" fill="#000000"></path>
                <path d="M62.3230392,11.6023003 C58.5900029,5.40999092 57.5954609,1.78307936 59.339413,0.721565603 C61.9553412,-0.870705027 81.5320508,1.86423031 84.4376775,3.91298937 C86.374762,5.27882873 86.374762,7.664558 84.4376775,11.0701772 L62.3230392,11.6023003 Z" id="Path-18" fill="#000000"></path>
                <path d="M63,13.4267372 C64.4186106,17.8089124 65.8707258,20 67.3563455,20 C68.8419653,20 70.3580965,17.8089124 71.9047393,13.4267372 L72.5320311,13.4267372 C73.6417684,17.8089124 74.9745608,20 76.5304081,20 C78.0862553,20 79.8343102,17.6666667 81.7745725,13 L63,13.4267372 Z" id="Path-19" fill="#000000"></path>
                <path d="M81.1928242,47.4402905 C81.8118205,45.5341142 88.8630419,45.5057445 89.3853553,47.4402905 C89.9076688,49.3748365 88.7271745,53.3238152 87.6486687,54.6408644 C86.5701629,55.9579136 85.50482,56.8892841 83.4889463,54.6408644 C81.4730725,52.3924447 80.5738279,49.3464668 81.1928242,47.4402905 Z" id="Path-20" stroke="#000000" stroke-width="2"></path>
                <path d="M93.6004346,119.6187 C90.7793816,110.535569 96.6775626,102.264284 97.877036,101.653909 C99.0765095,101.043535 94.9076944,109.060672 95.5428323,109.64732 C96.9682598,107.23726 100.80078,100.826201 101.519835,101.653909 C102.238891,102.481617 96.8350677,110.024468 98.4075635,111.025435 C99.5453539,109.354871 104.806172,101.253129 105.373365,102.814917 C105.940558,104.376704 100.016869,110.420992 100.569644,114.542509 C100.449515,116.191377 104.980404,111.924806 104.591881,113.541355 C104.203357,115.157904 103.614608,116.107615 99.2130733,119.6187 C96.579816,120.895688 95.5771696,120.48947 93.6004346,119.6187 Z" id="Path-4" fill="#0000FF" transform="translate(99.128191, 111.005930) scale(-1, -1) rotate(40.000000) translate(-99.128191, -111.005930) "></path>
                <path d="M44.2313688,119.484652 C41.4103158,110.401522 47.3084968,102.130236 48.5079702,101.519862 C49.7074436,100.909488 45.5386285,108.926625 46.1737664,109.513273 C47.5991939,107.103212 51.4317138,100.692154 52.1507693,101.519862 C52.8698248,102.34757 47.4660019,109.89042 49.0384976,110.891388 C50.176288,109.220824 55.4371062,101.119081 56.0042992,102.680869 C56.5714922,104.242657 50.647803,110.286945 51.2005785,114.408462 C51.0804487,116.05733 55.6113381,111.790759 55.2228147,113.407308 C54.8342912,115.023857 54.2455421,115.973568 49.8440074,119.484652 C47.2107501,120.761641 46.2081037,120.355422 44.2313688,119.484652 Z" id="Path-4-Copy-3" fill="#0000FF" transform="translate(49.759126, 110.871883) scale(1, -1) rotate(50.000000) translate(-49.759126, -110.871883) "></path>
                <path d="M40.5359824,29.7921361 C-1.16388093,43.7027697 9.9780604,109.887861 72.2389038,109.887861 C134.499747,109.887861 145.709528,52.7824538 107.580847,30.3187127" id="Path" stroke="#000000" stroke-width="2" stroke-linecap="round" stroke-linejoin="round" transform="translate(72.665516, 69.839999) scale(1, -1) translate(-72.665516, -69.839999) "></path>
                <path d="M42.0275187,106.15444 C25.0111216,100.972807 15.1644375,56.9049459 51.9141465,50.1608375 C51.9141465,69.6343355 49.8077199,79.0034924 49.8077199,106.15444 L51.5818355,105.209061 M96.5891608,105.209061 L98.3182144,107.571039 C98.3182144,79.9055253 97.3996939,64.6561008 95.6435122,50.1608375 C130.02048,57.7167478 119.788542,98.4567413 105.651109,105.209061" id="Path-2" stroke="#000000" stroke-width="2" stroke-linecap="round" stroke-linejoin="round"></path>
            </g>
        </g>
    </g>
</svg>
